X:1
T:The Land Beyond the River
T:The Land Beyond the River
T:Henry L. Frisbie
T:Henry L. Frisbie (1784–1821), alt.
T:Public Domain Courtesy of the Cyber Hymnal™
T:Public Domain Courtesy of the Cyber Hymnal™
C:Henry L. Frisbie
Z:Public Domain
Z:Courtesy of the Cyber Hymnal™
%%score ( 1 2 ) ( 3 4 )
L:1/8
Q:1/4=107
M:4/4
K:D
V:1 treble 
V:2 treble 
V:3 bass 
V:4 bass 
V:1
 D2 | D3 [DE] [DF]2 [DA]2 | [DB]2 [DA]2 [Dd]2 [DB]2 | [DA]3 [DB] [DA]2 [DF]2 | [DF]2 [CE]4 [CF]2 | %5
w: 1.~No|mor- tal eye that|land hath seen, Be-|yond, be- yond the|ri- ver, Its|
w: 2.~No|can- kering care nor|mor- tal strife, Be-|yond, be- yond the|ri- ver, But|
w: 3.~That|glor- ious day will|ne’er be done, Be-|yond, be- yond the|ri- ver, When|
w: 4.~When|we shall look from|Zi- on’s hill, Be-|yond, be- yond the|ri- ver, With|
 D3 [DE] [DF]2 [DA]2 | [DB]2 [DA]2 [Dd]2 [DB]2 | [DA]3 [DB] [DA]2 [DF]2 | [CE]2 D4 [DA]2 | %9
w: smil- ing val- leys,|hills so green, Be-|yond, be- yond the|ri- ver; Its|
w: hap- py, ne- ver|end- ing life Be-|yond, be- yond the|ri- ver. Thro’|
w: we’ve the crown and|king- dom won, Be-|yond, be- yond the|ri- ver. There|
w: end- less bliss our|hearts shall thrill, Be-|yond, be- yond the|ri- ver. There|
 [DF]2 [FA]2 [GB]2 [FA]2 | [FA]2 [Fd]4 [FA]2 | [DF]2 [FA]2 [GB]2 [FA]2 | [FA]2 [Fd]4 [Fd]2 | %13
w: shores are com- ing|near- er, The|skies are grow- ing|clear- er, Each|
w: the e- ter- nal|ho- urs, God’s|love, in heav’n- ly|show- ers, Shall|
w: is e- ter- nal|plea- sure, And|joys that none can|mea- sure, For|
w: an- gels bright are|sing- ing, Where|gold- en harps are|ring- ing, We|
 [FA]2 [Fd]2 [Ge]2 [Fd]2 | [GB]2 [Gd]2 ([Gc]2 [GB]2) | [FA]3 [GB] [FA]2 [DF]2 | [CE]2 D4 || %17
w: day it seem- eth|near- er, That *|land be- yond the|ri- ver.|
w: wa- ter faith’s fair|flow- ers In~the *|land be- yond the|ri- ver.|
w: those who have their|trea- sure, In~the *|land be- yond the|ri- ver.|
w: ne’er shall cease our|sing- ing, In~the *|land be- yond the|ri- ver.|
"^Refrain" [DF]2 | [FA]3 [FA] [FA]2 F2 | [GB]3 [GB] [GB]2 [FA]2 | [FA]3 [FA] [FA]2 [DF]2 | %21
w: ||||
w: ||||
w: ||||
w: ||||
 [DF]2 [CE]4 [CF]2 | D3 [DE] [DF]2 [DA]2 x8 | [DB]2 [DA]2 !fermata![Dd]2 [Gc]>[GB] | %24
w: |||
w: |||
w: |||
w: |||
 [FA]3 [GB] [FA]2 [DF]2 | [CE]2 D4 |] %26
w: ||
w: ||
w: ||
w: ||
V:2
 D2 | D3 x5 | x8 | x8 | x8 | D3 x5 | x8 | x8 | x2 D4 x2 | x8 | x8 | x8 | x8 | x8 | x8 | x8 | %16
 x2 D4 || x2 | x6 F2 | x8 | x8 | x8 | D3 x13 | x8 | x8 | x2 D4 |] %26
V:3
 [D,F,]2 | [D,F,]3 [D,G,] [D,A,]2 [D,F,]2 | [D,G,]2 [D,F,]2 [D,B,]2 G,2 | %3
w: ||* * * We’ll|
 [F,A,]3 G, [F,A,]2 [D,A,]2 | [A,,A,]2 [A,,A,]4 [A,,A,]2 | [D,F,]3 [D,G,] [D,A,]2 [D,F,]2 | %6
w: * stand * *|||
 [D,G,]2 [D,F,]2 [D,B,]2 G,2 | [F,A,]3 G, [F,A,]2 [D,A,]2 | [A,,G,]2 [D,F,]4 [D,F,]2 | %9
w: * * * the|* storm, * *||
 [D,A,]2 [D,D]2 [D,D]2 [D,D]2 | [D,D]2 [D,A,]4 [D,A,]2 | [D,A,]2 [D,D]2 [D,D]2 [D,D]2 | %12
w: |||
 [D,D]2 [D,A,]4 [D,A,]2 | [D,A,]2 [D,A,]2 [D,A,]2 [D,A,]2 | G,2 [G,B,]2 ([G,D]2 [G,D]2) | %15
w: ||We’ll * * *|
 [A,D]3 [A,D] [A,D]2 [A,,A,]2 | [A,,G,]2 [D,F,]4 || [D,A,]2 | [D,D]3 [D,D] [D,D]2 [D,D]2 | %19
w: ||stand|the storm, Its rage|
 [G,D]3 [G,D] [G,D]2 [D,D]2 | [D,D]3 [D,D] [D,D]2 [F,A,]2 | A,2 A,4 [A,,A,]2 | %22
w: is al- most o-|ver; We’ll an- chor|in the har-|
 [D,F,]3 [D,G,] [D,A,]2 [D,F,]2 [D,G,]2 [D,F,]2 !fermata![G,,B,]2 [G,,D]>[G,,D] | %23
w: bor soon, In the land be- yond the ri-|
 [A,,D]3 [A,,D] [A,,D]2 [A,,A,]2 | [A,,G,]2 [D,F,]4 x2 | x6 |] %26
w: ver. * * *|||
V:4
 x2 | x8 | x6 G,2 | x3 G, x4 | x8 | x8 | x6 G,2 | x3 G, x4 | x8 | x8 | x8 | x8 | x8 | x8 | G,2 x6 | %15
 x8 | x6 || x2 | x8 | x8 | x8 | A,2 A,4 x2 | x16 | x8 | x8 | x6 |] %26

